X:1
T:Made Whole
T:William James Kirkpatrick
T:Made Whole
T:Public Domain
T:Public Domain
T:Public Domain
C:William James Kirkpatrick
Z:Public Domain
%%score ( 1 2 ) ( 3 4 )
L:1/8
M:4/4
K:G
V:1 treble 
V:2 treble 
V:3 bass 
V:4 bass 
V:1
 D | [DG][DG] [DG]3 [DA] | [GB][GB] [GB]3 [DG] | [FA][FA] [FA]3 [FB] | [DG]E [DG]3 [CE] | %5
w: 1.~The|was great, the throng|was wild, And I,|a sin- ner all|de- filed, How could|
w: 2.~“Who|Me?” hear the dear|Lord say! The throng|was awed, the mass|gave way, And I|
w: 3.~“Thou|est all these peo-|ple, Lord, And yet|Thou seek- est by|Thy word To find|
w: 4.~“Go|in peace,” O hear|Him say; From all|Thy plague be healed|this day; Oh, what|
 [B,D][B,G] [DB]3 [DG] | [CA]2 [B,G]3 [DB] | [Dd][Dd] [Dd]3 [DB] | [DG][DA] [GB]3 [Gd] | %9
w: reach my Sav- ior?|Reach Him I|must, with- out de-|lay; And in the|
w: near my Sav- ior;|“Who touched Me?”|came the gra- cious|word; New life- blood|
w: touched Thee, Sav- ior?”|’Twas thus that|His dis- ci- ples|said, But I be-|
w: bless- èd Sav- ior!|To heal the|bo- dy, save the|soul, The vil- est|
 [Gd][Gd] [Gd]3 [DB] | [DA][^CG] [DA]3 [DG] | [GB][DA] [DG]3 D | [CE]2 [B,G]3 || %13
w: press, with fear, dis-|may, I, tremb- ling,|sought my Sav- ior.|words were|
w: thro’ my be- ing|stirred, For I had|touched my Sav- ior.||
w: fore Him bowed my|head; I knelt be-|fore my Sav- ior.||
w: of the vile make|whole, Oh, how I|love my Sav- ior.|words are|
[M:6/8]"^Refrain" [GB] | [FA]2 [FA] [FA]2 [FB] | [DG]3 [DG]2 [DG] | [Dc]2 [Dc] [Dc]2 [Dd] | %17
w: full|of com- fort, They|cheered my wea-|ry soul; For I|
w: ||||
w: ||||
w: full|of com- fort, Oh,|how they cheer|my soul! By faith|
 [DB]3- [DB]2 [Gd] | [Gd]2 [Gd] [Gd]2 [Ge] | [Gd]3 [GB]2 [FA] | [EG]2 [EG] [EA]2 [GB] | %21
w: had * touched|His gar- ment, His|grace had made|me whole; For I|
w: ||||
w: ||||
w: I * touch|His gar- ment, He|makes me clean|and whole; By faith|
 [FA]3- [FA]2 [Fd] | [Gd]2 [Gd] [Gd]2 [Ge] | [Gd]3 [GB]2 G | [FA]2 [FA] [GB]2 [DA] | %25
w: had * touched|His gar- ment, His|grace had made|whole. * * *|
w: ||||
w: ||||
w: I * touch|His gar- ment, He|makes me clean|whole. * * *|
 [DG]3- [DG]2 |] %26
w: |
w: |
w: |
w: |
V:2
 D | x6 | x6 | x6 | x E x4 | x6 | x6 | x6 | x6 | x6 | x6 | x5 D | x5 ||[M:6/8] x | x6 | x6 | x6 | %17
w: press||||I|||||||His||||||
w: touched||||stood|||||||||||||
w: se-||||who|||||||||||||
w: thou||||a|||||||His||||||
 x6 | x6 | x6 | x6 | x6 | x6 | x5 G | x6 | x5 |] %26
w: ||||||me|||
w: |||||||||
w: |||||||||
w: ||||||and|||
V:3
 [G,B,] | [G,B,][G,B,] [G,B,]3 [G,C] | [G,D][G,D] [G,D]3 [G,B,] | [D,C][D,C] [D,C]3 [D,D] | %4
 [G,B,][G,C] [G,B,]3 [C,G,] | [G,,G,][G,,D,] [G,,G,]3 [B,,G,] | [D,F,]2 [G,,G,]3 G, | %7
 [G,B,][G,B,] [G,B,]3 [G,B,] | [G,B,][G,C] [G,D]3 [G,B,] | [G,B,][G,B,] [G,B,]3 G, | %10
 [D,F,][E,G,] [D,F,]3 [G,B,] | [G,D][G,C] [G,B,]3 [B,,G,] | [C,G,]2 [G,,G,]3 ||[M:6/8] [G,D] | %14
 [D,D]2 [D,D] [D,D]2 [D,D] | [G,B,]3 [G,B,]2 [G,B,] | [F,A,]2 [F,A,] [F,A,]2 [F,A,] | %17
 G,3 G,2 [G,B,] | [G,B,]2 [G,B,] [G,B,]2 [G,C] | [G,B,]3 [G,D]2 [D,C] | %20
 [E,B,]2 [E,B,] [A,,^C]2 [A,,C] | [D,D]3- [D,D]2 [D,C] | [G,B,]2 [G,B,] [G,B,]2 [G,C] | %23
 [G,B,]3 [G,D]2 [G,B,] | [D,C]2 [D,C] [D,D]2 [D,C] | [G,,G,B,]3- [G,,G,B,]2 |] %26
V:4
 x | x6 | x6 | x6 | x6 | x6 | x5 G, | x6 | x6 | x5 G, | x6 | x6 | x5 ||[M:6/8] x | x6 | x6 | x6 | %17
 G,3 G,2 x | x6 | x6 | x6 | x6 | x6 | x6 | x6 | x5 |] %26

